img/icon-vimeo.svg

<svg fill="none" height="24" viewBox="0 0 24 24" width="24" xmlns="http://www.w3.org/2000/svg"><path d="m22 8.64c-.07 1.63-1.35 3.88-3.83 6.75-2.57 3-4.77 4.5-6.61 4.5-1.15 0-2.13-1.08-2.94-3.24l-1.49-5.66c-.63-2.16-1.31-3.24-2.04-3.24-.13 0-.64.31-1.53.93l-.87-1.13c.98-.87 1.95-1.74 2.9-2.62 1.32-1.15 2.31-1.75 2.97-1.8 1.54-.15 2.5.92 2.89 3.2.41 2.47.7 3.91.87 4.32.46 2.03.96 3.04 1.51 3.04.44 0 1.1-.72 1.98-2.17s1.35-2.55 1.41-3.3c.12-1.19-.41-1.78-1.58-1.78-.55 0-1.12.12-1.71.37 1.06-3.44 3.04-5.12 5.94-5.03 2.14.06 3.09 1.4 2.94 3.94z" fill="#fff"/></svg>

<svg width="24" height="24" viewBox="0 0 24 24" fill="none" xmlns="http://www.w3.org/2000/svg">
<path d="M22 8.64C21.93 10.27 20.65 12.52 18.17 15.39C15.6 18.39 13.4 19.89 11.56 19.89C10.41 19.89 9.43 18.81 8.62 16.65L7.13 10.99C6.5 8.83 5.82 7.75 5.09 7.75C4.96 7.75 4.45 8.06 3.56 8.68L2.69 7.55C3.67 6.68 4.64 5.81 5.59 4.93C6.91 3.78 7.9 3.18 8.56 3.13C10.1 2.98 11.06 4.05 11.45 6.33C11.86 8.8 12.15 10.24 12.32 10.65C12.78 12.68 13.28 13.69 13.83 13.69C14.27 13.69 14.93 12.97 15.81 11.52C16.69 10.07 17.16 8.97 17.22 8.22C17.34 7.03 16.81 6.44 15.64 6.44C15.09 6.44 14.52 6.56 13.93 6.81C14.99 3.37 16.97 1.69 19.87 1.78C22.01 1.84 22.96 3.18 22.81 5.72L22 8.64Z" fill="white"/>
</svg>
